X:200
T:Duchess of Bedford
R:Reel
B:The Athole Collection
M:C|
L:1/8
K:F
C|F/F/F FG AFAc|dfcA G2 GA|F/F/F FG AFAc|dgcA F2F:|
|:fgag afcf|dfcA G2G2|fgag afcf|dfcA F2F2:|
|:CFA,F CFBd|cAFA G2G2|CFA,F CF Bd|cAGA F2F2:|
fgag afcf|cdfa g2g2|fgag afcf|dfcA F2F2|fgag afcf|cdfa g2ga|
bage fdcf|cBAG F2F2||

